carriers/aramex.svg

<svg width="128" height="64" viewBox="0 0 128 64" fill="none" xmlns="http://www.w3.org/2000/svg">
<rect width="128" height="64" rx="6" fill="white"/>
<path d="M25.9798 26.0214C25.2972 25.3286 24.5537 24.8059 23.7493 24.4608C22.9474 24.1106 22.0821 23.9381 21.1686 23.9355C19.1766 23.9355 17.4866 24.6968 16.0909 26.2143C14.6978 27.7343 14.0025 29.6831 14 32.0608C14 34.3548 14.7181 36.2757 16.1569 37.816C17.5957 39.3614 19.301 40.1353 21.2726 40.1353C22.1532 40.1366 22.9703 39.9781 23.7214 39.6633C24.4751 39.3461 25.2262 38.831 25.9747 38.1103V39.742H29.8268V24.339H25.9798V26.0214ZM24.9597 35.3241C24.168 36.1716 23.1707 36.5904 21.9679 36.5929C20.8032 36.5916 19.8212 36.1615 19.0269 35.2987C18.2301 34.4385 17.8317 33.3397 17.8317 32.0075C17.8317 30.6804 18.225 29.5968 19.0066 28.7493C19.7907 27.9017 20.7727 27.483 21.9578 27.483C23.1707 27.483 24.1731 27.8992 24.9648 28.729C25.7565 29.5638 26.0128 30.5129 26.0103 31.8553C26.0103 33.2281 25.754 34.4791 24.9597 35.3241M51.9162 26.0214C51.2336 25.3286 50.4876 24.8059 49.6883 24.4608C48.8813 24.1106 48.0211 23.9381 47.1025 23.9355C45.1156 23.9355 43.4205 24.6968 42.0274 26.2143C40.6342 27.7343 39.9389 29.6831 39.9364 32.0608C39.9339 34.3548 40.652 36.2757 42.0933 37.816C43.5321 39.3614 45.2374 40.1353 47.2116 40.1353C48.0896 40.1366 48.9067 39.9781 49.6553 39.6633C50.4089 39.3461 51.16 38.831 51.9086 38.1103V39.742H55.7606V24.339H51.9162V26.0214ZM50.8961 35.3241C50.1044 36.1716 49.1046 36.5904 47.9069 36.5929C46.7396 36.5916 45.7576 36.1615 44.9608 35.2987C44.164 34.4385 43.7656 33.3397 43.7681 32.0075C43.7707 30.6804 44.1589 29.5968 44.943 28.7493C45.7271 27.9017 46.7092 27.483 47.8942 27.483C49.1046 27.483 50.107 27.8992 50.9012 28.729C51.6929 29.5638 51.9467 30.5129 51.9441 31.8553C51.9441 33.2281 51.6904 34.4791 50.8961 35.3241M78.9387 24.7146C78.1115 24.2045 77.1548 23.9507 76.0637 23.9507C75.008 23.9495 74.0412 24.1868 73.1505 24.6638C72.2624 25.1383 71.5138 25.8311 70.8997 26.7472C70.4328 25.8311 69.8137 25.1358 69.0448 24.6613C68.2708 24.1842 67.408 23.9457 66.4488 23.9432C65.4998 23.9432 64.6243 24.1232 63.8199 24.4862C63.0155 24.8465 62.2847 25.3921 61.6275 26.1254V24.339H57.7729L57.7678 39.742H61.6198L61.6223 32.9083C61.6248 31.4315 61.7543 30.348 62.0131 29.6603C62.2745 28.9726 62.6652 28.4397 63.188 28.0565C63.7132 27.6784 64.2943 27.4856 64.9363 27.4856C65.5098 27.4868 66.0021 27.6379 66.4081 27.9398C66.8141 28.2418 67.1161 28.7011 67.3191 29.3177C67.5221 29.9343 67.6236 30.9291 67.6236 32.3069L67.6161 39.742H71.4732V32.8145C71.4783 31.3452 71.6051 30.2794 71.8589 29.6171C72.1152 28.9523 72.506 28.4346 73.0287 28.0565C73.5489 27.681 74.1452 27.4932 74.8075 27.4932C75.6754 27.4932 76.3224 27.8028 76.7589 28.4169C77.1954 29.036 77.4111 30.216 77.4111 31.9542L77.4059 39.742H81.2579L81.2629 30.721C81.2629 28.8711 81.0828 27.5338 80.7224 26.7142C80.3621 25.892 79.7683 25.2246 78.9385 24.7146M94.7095 35.2023C93.6792 36.2275 92.446 36.7401 91.0122 36.7401C89.8094 36.7388 88.8274 36.4076 88.0509 35.753C87.2769 35.0983 86.8024 34.2152 86.6223 33.1037L98.9802 33.1113L98.9954 32.3779C98.9954 29.8404 98.2418 27.8002 96.7294 26.2497C95.2195 24.7043 93.2555 23.9304 90.8397 23.9278C88.5661 23.9278 86.673 24.7018 85.1683 26.2573C83.6584 27.8078 82.9047 29.7592 82.9047 32.109C82.9022 34.4054 83.6584 36.3112 85.1657 37.8362C86.673 39.3638 88.632 40.1251 91.0326 40.1251C92.5805 40.1264 93.9152 39.8511 95.0444 39.2979C96.1686 38.7472 97.1354 37.8921 97.9423 36.74L94.7095 35.2023ZM88.2133 28.1225C89.0228 27.5262 89.9642 27.2293 91.0351 27.2318C92.0273 27.2318 92.8951 27.4957 93.6386 28.0261C94.3897 28.559 94.8896 29.2467 95.1434 30.0942L86.8024 30.0891C87.2338 29.1503 87.7058 28.493 88.2133 28.1225M108.123 31.5914L113.33 24.3365H108.938L105.923 28.5362L102.898 24.3365H98.4371L103.698 31.6345L97.8814 39.742H102.274L105.895 34.6923L109.536 39.742H114L108.123 31.5914ZM39.0988 23.8645C38.3858 23.8645 37.7641 23.9989 37.2439 24.2604C36.7313 24.5166 36.1426 24.9861 35.4803 25.6738V24.339H31.8033V39.742H35.6553L35.6528 31.7309C35.6528 28.795 36.4648 27.3232 38.4289 27.3232C38.7689 27.3232 39.1166 27.3969 39.4668 27.5288C40.0986 26.4706 40.8294 25.4759 41.6465 24.5598C40.766 24.1081 39.9159 23.8645 39.0988 23.8645" fill="#E12626"/>
</svg>

<svg xmlns="http://www.w3.org/2000/svg" width="128" height="64" fill="none"><rect width="128" height="64" fill="#fff" rx="6"/><path fill="#E12626" d="M25.98 26.021c-.683-.692-1.426-1.215-2.23-1.56a6.439 6.439 0 0 0-2.581-.525c-1.992 0-3.682.76-5.078 2.278-1.393 1.52-2.089 3.47-2.091 5.847 0 2.294.718 4.215 2.157 5.755 1.439 1.545 3.144 2.32 5.116 2.32a6.25 6.25 0 0 0 2.448-.473c.754-.317 1.505-.832 2.254-1.553v1.632h3.852V24.339H25.98v1.682Zm-1.02 9.303c-.792.848-1.79 1.266-2.992 1.269-1.165-.001-2.147-.432-2.941-1.294-.797-.86-1.195-1.96-1.195-3.291 0-1.328.393-2.411 1.175-3.259.784-.847 1.766-1.266 2.95-1.266 1.214 0 2.216.416 3.008 1.246.791.835 1.048 1.784 1.045 3.126 0 1.373-.256 2.624-1.05 3.47m26.956-9.304c-.682-.692-1.428-1.215-2.228-1.56a6.463 6.463 0 0 0-2.586-.525c-1.986 0-3.681.76-5.075 2.278-1.393 1.52-2.088 3.47-2.09 5.847-.003 2.294.715 4.215 2.156 5.755 1.44 1.545 3.144 2.32 5.119 2.32a6.226 6.226 0 0 0 2.443-.473c.754-.317 1.505-.832 2.254-1.553v1.632h3.852V24.339h-3.845v1.682Zm-1.02 9.303c-.792.848-1.791 1.266-2.99 1.269-1.166-.001-2.148-.432-2.945-1.294-.797-.86-1.195-1.96-1.193-3.291.003-1.328.39-2.411 1.175-3.259.784-.847 1.766-1.266 2.951-1.266 1.21 0 2.213.416 3.007 1.246.792.835 1.046 1.784 1.043 3.126 0 1.373-.254 2.624-1.048 3.47m28.043-10.61c-.827-.51-1.784-.764-2.875-.764a6.046 6.046 0 0 0-2.913.713c-.889.474-1.637 1.167-2.251 2.083-.467-.916-1.086-1.611-1.855-2.086-.774-.477-1.637-.715-2.596-.718-.95 0-1.825.18-2.63.543-.803.36-1.534.906-2.192 1.64v-1.787h-3.854l-.005 15.403h3.852l.002-6.834c.003-1.477.132-2.56.391-3.248.262-.687.652-1.22 1.175-1.604a2.924 2.924 0 0 1 1.748-.57c.574 0 1.066.152 1.472.454.406.302.708.761.911 1.378.203.616.305 1.611.305 2.989l-.008 7.435h3.857v-6.927c.005-1.47.132-2.536.386-3.198.256-.665.647-1.182 1.17-1.56a2.97 2.97 0 0 1 1.779-.564c.867 0 1.514.31 1.95.924.437.619.653 1.799.653 3.537l-.005 7.788h3.852l.005-9.021c0-1.85-.18-3.187-.54-4.007-.36-.822-.955-1.49-1.784-2m15.77 10.488c-1.03 1.026-2.263 1.538-3.697 1.538-1.203-.001-2.185-.332-2.961-.987-.774-.655-1.249-1.538-1.429-2.65l12.358.008.015-.733c0-2.538-.753-4.578-2.266-6.128-1.51-1.546-3.474-2.32-5.89-2.322-2.273 0-4.166.774-5.67 2.33-1.51 1.55-2.264 3.501-2.264 5.851-.003 2.296.753 4.202 2.26 5.727 1.508 1.528 3.467 2.29 5.868 2.29 1.547 0 2.882-.275 4.011-.828 1.125-.55 2.091-1.406 2.898-2.558l-3.232-1.538Zm-6.496-7.08c.81-.596 1.751-.893 2.822-.89.992 0 1.86.264 2.604.794.75.533 1.25 1.22 1.504 2.068l-8.34-.005c.43-.939.903-1.596 1.41-1.966m19.91 3.468 5.207-7.255h-4.392l-3.015 4.2-3.025-4.2h-4.46l5.26 7.299-5.817 8.107h4.393l3.621-5.05 3.641 5.05H114l-5.877-8.15Zm-69.024-7.727c-.713 0-1.335.135-1.855.396-.513.257-1.101.726-1.764 1.414v-1.335h-3.677v15.403h3.852l-.002-8.011c0-2.936.812-4.408 2.776-4.408.34 0 .688.074 1.038.206a19.413 19.413 0 0 1 2.18-2.97c-.881-.45-1.731-.695-2.548-.695"/></svg>
